assets/Stuffed flatbread/Flat/stuffed_flatbread_flat.svg

<svg width="32" height="32" viewBox="0 0 32 32" fill="none" xmlns="http://www.w3.org/2000/svg">
<path d="M25.9 6.09999C23.9 4.09999 21.5 2.79999 18.9 2.29999L2.30005 18.9C2.80005 21.5 4.10005 23.9 6.10005 25.9C11.6 31.4 20.5 31.4 25.9 25.9C31.3 20.4 31.4 11.6 25.9 6.09999Z" fill="#F3C07B"/>
<path d="M17 3.6C18.4 3.6 19.8 4.1 20.9 5.2C21.8269 6.17101 22.3447 7.37579 22.4533 8.60798C19.2812 12 12.4688 18.125 8.46137 22.4649C7.2805 22.3338 6.13246 21.8325 5.2 20.9C3 18.7 3 15.3 5.2 13.1L13.1 5.2C14.1 4.2 15.6 3.6 17 3.6ZM17 2C15.1 2 13.3 2.7 12 4.1L4.1 12C1.3 14.8 1.3 19.3 4.1 22.1C5.4 23.4 7.2 24.2 9.1 24.2C11 24.2 12.8 23.5 14.1 22.1L22 14.2C23.3 12.9 24.1 11.1 24.1 9.2C24.1 7.3 23.4 5.5 22 4.2C20.6 2.9 18.9 2 17 2Z" fill="#FFDEA7"/>
<path d="M20.9 5.2C18.8 3.1 15.3 3.1 13.1 5.2L5.20005 13.1C3.00005 15.2 3.00005 18.7 5.20005 20.9C7.40005 23.1 10.8 23.1 13 20.9L20.9 13C23 10.9 23 7.4 20.9 5.2Z" fill="#F3AD61"/>
<path d="M20.4001 4.7C20.3001 4.6 20.1001 4.4 20.0001 4.3C18.3001 2.9 15.9001 2.9 14.2001 4.3C14.2001 4.3 14.2001 4.3 14.1001 4.4C13.1001 5.3 11.7001 5.7 10.4001 5.5C9.1001 5.3 7.8001 5.8 6.8001 6.8C5.8001 7.8 5.4001 9.1 5.5001 10.4C5.7001 11.8 5.77208 12.3406 4.3001 14.1C2.82813 15.8594 2.83314 18.2187 4.3001 20C4.4001 20.1 4.4001 20.1 4.5001 20.2C5.5001 21.2 7.1001 21.2 8.0001 20.2L20.4001 7.8C21.3001 6.9 21.3001 5.5 20.4001 4.7Z" fill="#44911B"/>
<path d="M20.7999 9.40001C20.7999 12 18.6999 14.1 16.0999 14.1C13.4999 14.1 11.3999 12 11.3999 9.40001C11.3999 6.80001 13.4999 4.70001 16.0999 4.70001C18.6999 4.70001 20.7999 6.80001 20.7999 9.40001Z" fill="#F8312F"/>
<path d="M14.1 16.1C14.1 18.7 12 20.8 9.39995 20.8C6.79995 20.8 4.69995 18.7 4.69995 16.1C4.69995 13.5 6.79995 11.4 9.39995 11.4C12 11.4 14.1 13.5 14.1 16.1Z" fill="#F8312F"/>
<path d="M21.4936 6.30687C20.185 4.99773 18.0712 4.99773 16.8632 6.30687L6.29394 16.8807C4.98535 18.1898 4.98535 20.3046 6.29394 21.5131C7.60252 22.8222 9.71638 22.8222 10.9243 21.5131L21.4936 11.0399C22.8022 9.73078 22.8022 7.61601 21.4936 6.30687Z" fill="#7D4533"/>
<path d="M20.2 9.99999V13.7L13.7 20.2H10C9.30005 20.2 8.80005 19.7 8.80005 19V9.99999C8.80005 9.29999 9.30005 8.79999 10 8.79999H19C19.7 8.79999 20.2 9.39999 20.2 9.99999Z" fill="#F9C23C"/>
<path d="M20.9001 13L13.0001 20.9C11.7001 22.2 10.0001 22.7 8.40014 22.5C8.19328 21.2588 8.55611 19.9378 9.40014 19C10.3001 18 10.7001 16.7 10.5001 15.3C10.4001 14 10.8001 12.7 11.7001 11.8C12.7001 10.8 14.0001 10.4 15.2001 10.6C16.5001 10.7 18.3931 9.65928 18.8001 9.49999C19.2072 9.34071 21.0347 8.27966 22.491 8.52237C22.6463 9.75506 22.2838 11.5782 20.9001 13Z" fill="#86D72F"/>
</svg>

<svg xmlns="http://www.w3.org/2000/svg" width="32" height="32" fill="none"><path fill="#F3C07B" d="M25.9 6.1c-2-2-4.4-3.3-7-3.8L2.3 18.9c.5 2.6 1.8 5 3.8 7 5.5 5.5 14.4 5.5 19.8 0s5.5-14.3 0-19.8Z"/><path fill="#FFDEA7" d="M17 3.6c1.4 0 2.8.5 3.9 1.6a5.64 5.64 0 0 1 1.553 3.408C19.281 12 12.47 18.125 8.461 22.465A5.408 5.408 0 0 1 5.2 20.9c-2.2-2.2-2.2-5.6 0-7.8l7.9-7.9c1-1 2.5-1.6 3.9-1.6ZM17 2c-1.9 0-3.7.7-5 2.1L4.1 12c-2.8 2.8-2.8 7.3 0 10.1 1.3 1.3 3.1 2.1 5 2.1s3.7-.7 5-2.1l7.9-7.9c1.3-1.3 2.1-3.1 2.1-5s-.7-3.7-2.1-5C20.6 2.9 18.9 2 17 2Z"/><path fill="#F3AD61" d="M20.9 5.2c-2.1-2.1-5.6-2.1-7.8 0l-7.9 7.9c-2.2 2.1-2.2 5.6 0 7.8s5.6 2.2 7.8 0l7.9-7.9c2.1-2.1 2.1-5.6 0-7.8Z"/><path fill="#44911B" d="m20.4 4.7-.4-.4a4.53 4.53 0 0 0-5.8 0l-.1.1c-1 .9-2.4 1.3-3.7 1.1-1.3-.2-2.6.3-3.6 1.3s-1.4 2.3-1.3 3.6c.2 1.4.272 1.94-1.2 3.7-1.472 1.76-1.467 4.119 0 5.9l.2.2c1 1 2.6 1 3.5 0L20.4 7.8c.9-.9.9-2.3 0-3.1Z"/><path fill="#F8312F" d="M20.8 9.4c0 2.6-2.1 4.7-4.7 4.7s-4.7-2.1-4.7-4.7 2.1-4.7 4.7-4.7 4.7 2.1 4.7 4.7Z"/><path fill="#F8312F" d="M14.1 16.1c0 2.6-2.1 4.7-4.7 4.7s-4.7-2.1-4.7-4.7 2.1-4.7 4.7-4.7 4.7 2.1 4.7 4.7Z"/><path fill="#7D4533" d="M21.494 6.307c-1.309-1.31-3.423-1.31-4.63 0L6.293 16.88c-1.309 1.309-1.309 3.424 0 4.632 1.309 1.31 3.422 1.31 4.63 0l10.57-10.473a3.344 3.344 0 0 0 0-4.733Z"/><path fill="#F9C23C" d="M20.2 10v3.7l-6.5 6.5H10c-.7 0-1.2-.5-1.2-1.2v-9c0-.7.5-1.2 1.2-1.2h9c.7 0 1.2.6 1.2 1.2Z"/><path fill="#86D72F" d="M20.9 13 13 20.9c-1.3 1.3-3 1.8-4.6 1.6-.207-1.241.156-2.562 1-3.5.9-1 1.3-2.3 1.1-3.7-.1-1.3.3-2.6 1.2-3.5 1-1 2.3-1.4 3.5-1.2 1.3.1 3.193-.94 3.6-1.1.407-.16 2.235-1.22 3.691-.978.155 1.233-.207 3.056-1.59 4.478Z"/></svg>
